X:011 
T:Brian Boru's March 
B:NFID.175a 
F:file ID nfid/011boru
Z:bill@capeirish.com
S:F&MB
N:An interesting setting of a well-known tune from the
Byrne Brothers.
Q:120
L:1/8
M:6/8
R:jig
K:D
"A modal"
ed|: c<AA A>ed|c<AA A>Bc|d>BG BGB|d>BG G>ed|
c<AA A>ed|c<AA A2B|=cde fdf|1 e>AA A:|2 ecA A2||
|:B|cde/f/ g2a|g2a gfg|GAB/=c/ d2B|d2e dBG|
Bd (3e/f/g/ a3|aba ged|=cde fdf|ecA A2:|
|:B|=cBA a3|^cBA [A3a3]|B>AG d>BG|B>AG d>BG|
=c>BA ab/a/g|aba ged|=cde fdf|1ecA A2:|2 ecB A3-|A6|]

